X: 15340
T: Gladstone, The
R: reel
M: 4/4
K: Gmajor
BGcA defg|G2 BG AFDc|BGcA defg|dBcA G3c|
BGcA defg|G2 BG AFDc|BGcA defg|dBcA G3d||
geag fdgf|ecfe dBed|cAdc BGcB|AGFA GABd|
geag fdgf|ecfe dBed|cAdc Bdge|dBcA G3c||

